X:134
T: Da shuang mawozi songgei ni
N: C0224
O: China,Sichuan, Nanjiang
S: II, 212, 2)]
N: Der Schluss ist arrangiert. Nur die obere Zeilegilt. Der Saenger Lai Yuan
N: hen war frueher selbst Landarbeiter. Heute ist er Student an der Guangzhouer
N: usikhochschule. Aufgenommen am 5.5.87 +++ AUCH AUF KASSETTE 3 = 48, CUT 6
N: A-Seite) Vereinzelt Fermaten, einige Verzierungen und Glissandi. Die 5 in
N: . 7 bzw. 17, nicht 27), die erste 5 in T. 16 bzw. 26 klingt hoeher.
R: Shange. Biaoda aiqing]
M: 2/4
L: 1/32
K: D
F4d4F4d3B | B4B2B2d8 | B4e4B4d4 |
B4B2d2B6B2 | d6d2F4d2B2 |
A4B2B2A4B2B2 | F4d4F4A4 | A4d4B8 |
B4e4e4d8B2B2 | e2d2B4B4z4 |
F6d2F4d2B2 | B4B2B2d4d4 |
e4d2e2d4d2B2 | A6A2B6B2 | d6B2F4d2B2 |
A4B2B2A4B2B2 | F4d4F4A4 | d6B2d8 |
e4d2e2B2d2B2B2 | e4d2B2B4z4 |
d6B2F4d2B2 | B4B2B2d4d4 | e6e2d4d4 |
B4B2d2B6B2 | d6B2d6B2 |
A4B2B2A4B2B2 | F6d2F4A4 |
d4B2B2d4d2d2 | B4d4B4B4 | B4d12- | d12
B2B2 | e6d2B4z4

@@@ Tune index: 6135
